files/resources/svgs/general/o-folder-minus.svg

<svg width="24" height="24" viewBox="0 0 24 24" fill="none" xmlns="http://www.w3.org/2000/svg">
<path d="M15 13.5H9M13.0607 6.31066L10.9393 4.18934C10.658 3.90804 10.2765 3.75 9.87868 3.75H4.5C3.25736 3.75 2.25 4.75736 2.25 6V18C2.25 19.2426 3.25736 20.25 4.5 20.25H19.5C20.7426 20.25 21.75 19.2426 21.75 18V9C21.75 7.75736 20.7426 6.75 19.5 6.75H14.1213C13.7235 6.75 13.342 6.59197 13.0607 6.31066Z" stroke="#0F172A" stroke-width="1.5" stroke-linecap="round" stroke-linejoin="round"/>
</svg>

<svg xmlns="http://www.w3.org/2000/svg" fill="none" viewBox="0 0 24 24" stroke-width="1.5" stroke="currentColor" aria-hidden="true">
  <path stroke-linecap="round" stroke-linejoin="round" d="M15 13.5H9m4.06-7.19l-2.12-2.12a1.5 1.5 0 00-1.061-.44H4.5A2.25 2.25 0 002.25 6v12a2.25 2.25 0 002.25 2.25h15A2.25 2.25 0 0021.75 18V9a2.25 2.25 0 00-2.25-2.25h-5.379a1.5 1.5 0 01-1.06-.44z"/>
</svg>
